X:28
T:In Peace and Joy I Now Depart
%%stretchlast false
M:4/4
L:1/4
K:Bb clef=C1
"^ii"[CEGc]2 "^V/ii¹"[=B,DGg] "^ii"[CEcg] | "^iii"[DFAf] "^V¹"[A,FAc'] "^I"[B,Fdb]/ "^vi¹"[B,Gdb]/ [DGda]/ "^V/vi"[D_Gda]/ | "^vi"[G,GBg]2 [GBdb]2 | "^IV"[EBeg] "^I"[B,dfb] "^vii°¹"[Ccea]/4 "^V²"[Ccfa]/4 "^ii"[Dcg]/ "^vi"[DAga]/ "^V/vi"[DA_ga]/ | "^vi"[GBg] "^ii"[Ce]/ "^vi"[B,cfg]/ "^I"[B,dfb]/ [B,dfb]/ "^I²"[Fdfb]/ "^iii7"[Dcfa]/ | "^I¹"[DBfb]/ "^iv"[EBeb]/ "^vi"[FBcg]/ "^V"[FAcf]/ "^V²"[CAcf]/ "^VI+"[G=Be]/ "^V/ii"[G,G=Bd]/ "^ii"[CGcd]/ | [CGc]3/2 [CGce]/ [CGeg] "^vi"[DGdg]/ "^ii¹"[EGcf]/ | "^IV"[EGBe]/ "^V"[FGAe]/ [FAc]/ "^i"[B,FBc]/ "^I"[B,DB]/ "^iv"[DEB] [EB]/ | "^IVmaj7³"[DEBg]/ "^vi"[CFBg]/ "^ii7"[CGBg]/ [G,Gcf]/ "^ii²"[G,Gce]/ "^IV"[F,GBe]/ "^vi7³"[F,GBb]/ "^ii7"[CGcb]/ | [Ccb]/ "^ii+"[_A,Cc_a]/ "^♭VIImaj7"[_A,Ecg]/ [_A,Ecg]/ "^v¹"[_A,Fcf]/ "^ii²"[G,Fce]/ "^v"[G,Ccf]/ "^♯i°7"[CD=Bf]/ | "^VI²"[DE=Bg]/ "^IV"[DEAg]/ "^v"[Fc]/ "^i"[FBf]/ "^IV²"[B,GBe]/ [B,GAe]/ "^v"[CFGc]/ [CFc]/ | "^vi"[G,DBc]/ "^♯vi°"[_A,DBc]/ "^VI+"[G,G=Be]/ "^ii²"[G,Gce]/ [CGcd]/ "^ii"[CE=Bc]/ [CGd]/ [CFGd]/ | "^II"[C=EGc]4 |]
